icons/render-light.svg

<svg width="256" height="256" viewBox="0 0 256 256" fill="none" xmlns="http://www.w3.org/2000/svg">
<path d="M196 0H60C26.8629 0 0 26.8629 0 60V196C0 229.137 26.8629 256 60 256H196C229.137 256 256 229.137 256 196V60C256 26.8629 229.137 0 196 0Z" fill="#F4F2ED"/>
<path d="M159.446 67.0342C143.778 66.2937 130.604 77.67 128.356 92.6589C128.267 93.3545 128.133 94.0276 128.022 94.7008C124.528 113.37 108.259 127.506 88.7194 127.506C81.7536 127.506 75.2106 125.711 69.5133 122.569C68.8234 122.188 68 122.682 68 123.467V127.484V188H128V142.63C128 134.282 134.72 127.506 142.999 127.506H157.999C174.98 127.506 188.644 113.302 187.977 96.0247C187.376 80.4748 174.869 67.7747 159.446 67.0342Z" fill="#131313"/>
<path d="M63.5032 227V197.909H73.3327C75.6055 197.909 77.471 198.297 78.9293 199.074C80.3877 199.841 81.4672 200.897 82.168 202.241C82.8687 203.586 83.2191 205.116 83.2191 206.83C83.2191 208.544 82.8687 210.063 82.168 211.389C81.4672 212.715 80.3924 213.757 78.9435 214.514C77.4947 215.262 75.6433 215.636 73.3896 215.636H65.435V212.455H73.2759C74.829 212.455 76.079 212.227 77.0259 211.773C77.9824 211.318 78.6737 210.674 79.0998 209.841C79.5354 208.998 79.7532 207.994 79.7532 206.83C79.7532 205.665 79.5354 204.647 79.0998 203.776C78.6642 202.904 77.9682 202.232 77.0117 201.759C76.0553 201.276 74.7911 201.034 73.2191 201.034H67.0259V227H63.5032ZM77.1964 213.932L84.3555 227H80.2646L73.2191 213.932H77.1964ZM97.5479 227.455C95.4457 227.455 93.6322 226.991 92.1076 226.062C90.5924 225.125 89.4229 223.818 88.5991 222.142C87.7847 220.456 87.3775 218.496 87.3775 216.261C87.3775 214.027 87.7847 212.057 88.5991 210.352C89.4229 208.638 90.5688 207.303 92.0366 206.347C93.5138 205.381 95.2373 204.898 97.207 204.898C98.3434 204.898 99.4656 205.087 100.574 205.466C101.681 205.845 102.69 206.46 103.599 207.312C104.508 208.155 105.233 209.273 105.772 210.665C106.312 212.057 106.582 213.771 106.582 215.807V217.227H89.7638V214.33H103.173C103.173 213.098 102.927 212 102.434 211.034C101.951 210.068 101.26 209.306 100.36 208.747C99.4703 208.188 98.4192 207.909 97.207 207.909C95.8718 207.909 94.7165 208.241 93.7411 208.903C92.7752 209.557 92.0318 210.409 91.511 211.46C90.9902 212.511 90.7298 213.638 90.7298 214.841V216.773C90.7298 218.42 91.0138 219.817 91.582 220.963C92.1597 222.099 92.9599 222.966 93.9826 223.562C95.0053 224.15 96.1938 224.443 97.5479 224.443C98.4286 224.443 99.2241 224.32 99.9343 224.074C100.654 223.818 101.274 223.439 101.795 222.938C102.316 222.426 102.718 221.792 103.002 221.034L106.241 221.943C105.9 223.042 105.327 224.008 104.522 224.841C103.717 225.665 102.723 226.309 101.539 226.773C100.356 227.227 99.0252 227.455 97.5479 227.455ZM115.034 213.875V227H111.681V205.182H114.92V208.591H115.204C115.716 207.483 116.492 206.593 117.534 205.92C118.575 205.239 119.92 204.898 121.568 204.898C123.045 204.898 124.338 205.201 125.446 205.807C126.554 206.403 127.415 207.312 128.031 208.534C128.646 209.746 128.954 211.28 128.954 213.136V227H125.602V213.364C125.602 211.65 125.157 210.314 124.267 209.358C123.377 208.392 122.155 207.909 120.602 207.909C119.532 207.909 118.575 208.141 117.733 208.605C116.899 209.069 116.241 209.746 115.758 210.636C115.275 211.527 115.034 212.606 115.034 213.875ZM143.319 227.455C141.5 227.455 139.895 226.995 138.503 226.077C137.111 225.149 136.022 223.842 135.236 222.156C134.45 220.461 134.057 218.458 134.057 216.148C134.057 213.856 134.45 211.867 135.236 210.182C136.022 208.496 137.116 207.194 138.517 206.276C139.919 205.357 141.538 204.898 143.375 204.898C144.796 204.898 145.918 205.134 146.742 205.608C147.575 206.072 148.21 206.602 148.645 207.199C149.09 207.786 149.436 208.269 149.682 208.648H149.966V197.909H153.319V227H150.08V223.648H149.682C149.436 224.045 149.086 224.547 148.631 225.153C148.176 225.75 147.528 226.285 146.685 226.759C145.842 227.223 144.72 227.455 143.319 227.455ZM143.773 224.443C145.118 224.443 146.254 224.093 147.182 223.392C148.11 222.682 148.816 221.702 149.299 220.452C149.782 219.192 150.023 217.739 150.023 216.091C150.023 214.462 149.786 213.037 149.313 211.815C148.839 210.584 148.139 209.628 147.211 208.946C146.283 208.255 145.137 207.909 143.773 207.909C142.353 207.909 141.169 208.274 140.222 209.003C139.284 209.723 138.579 210.703 138.105 211.943C137.641 213.174 137.409 214.557 137.409 216.091C137.409 217.644 137.646 219.055 138.12 220.324C138.603 221.583 139.313 222.587 140.25 223.335C141.197 224.074 142.372 224.443 143.773 224.443ZM169.071 227.455C166.969 227.455 165.156 226.991 163.631 226.062C162.116 225.125 160.946 223.818 160.123 222.142C159.308 220.456 158.901 218.496 158.901 216.261C158.901 214.027 159.308 212.057 160.123 210.352C160.946 208.638 162.092 207.303 163.56 206.347C165.037 205.381 166.761 204.898 168.73 204.898C169.867 204.898 170.989 205.087 172.097 205.466C173.205 205.845 174.213 206.46 175.123 207.312C176.032 208.155 176.756 209.273 177.296 210.665C177.836 212.057 178.105 213.771 178.105 215.807V217.227H161.287V214.33H174.696C174.696 213.098 174.45 212 173.958 211.034C173.475 210.068 172.783 209.306 171.884 208.747C170.994 208.188 169.943 207.909 168.73 207.909C167.395 207.909 166.24 208.241 165.265 208.903C164.299 209.557 163.555 210.409 163.034 211.46C162.514 212.511 162.253 213.638 162.253 214.841V216.773C162.253 218.42 162.537 219.817 163.105 220.963C163.683 222.099 164.483 222.966 165.506 223.562C166.529 224.15 167.717 224.443 169.071 224.443C169.952 224.443 170.748 224.32 171.458 224.074C172.177 223.818 172.798 223.439 173.319 222.938C173.839 222.426 174.242 221.792 174.526 221.034L177.765 221.943C177.424 223.042 176.851 224.008 176.046 224.841C175.241 225.665 174.247 226.309 173.063 226.773C171.879 227.227 170.549 227.455 169.071 227.455ZM183.205 227V205.182H186.444V208.477H186.671C187.069 207.398 187.788 206.522 188.83 205.849C189.872 205.177 191.046 204.841 192.353 204.841C192.599 204.841 192.907 204.846 193.276 204.855C193.645 204.865 193.925 204.879 194.114 204.898V208.307C194 208.278 193.74 208.236 193.333 208.179C192.935 208.113 192.514 208.08 192.069 208.08C191.008 208.08 190.061 208.302 189.228 208.747C188.404 209.183 187.75 209.789 187.267 210.565C186.794 211.332 186.557 212.208 186.557 213.193V227H183.205Z" fill="#131313"/>
</svg>

<svg xmlns="http://www.w3.org/2000/svg" width="256" height="256" fill="none"><path fill="#F4F2ED" d="M196 0H60C26.863 0 0 26.863 0 60v136c0 33.137 26.863 60 60 60h136c33.137 0 60-26.863 60-60V60c0-33.137-26.863-60-60-60"/><path fill="#131313" d="M159.446 67.034c-15.668-.74-28.842 10.636-31.09 25.625-.089.695-.223 1.369-.334 2.042-3.494 18.669-19.763 32.805-39.303 32.805a39.65 39.65 0 0 1-19.206-4.937 1.016 1.016 0 0 0-1.513.898V188h60v-45.37c0-8.348 6.72-15.124 14.999-15.124h15c16.981 0 30.645-14.204 29.978-31.481-.601-15.55-13.108-28.25-28.531-28.99M63.503 227v-29.091h9.83q3.41 0 5.596 1.165 2.188 1.15 3.239 3.167t1.051 4.589q0 2.57-1.051 4.559t-3.225 3.125q-2.173 1.122-5.553 1.122h-7.955v-3.181h7.84q2.331 0 3.75-.682 1.436-.683 2.075-1.932.653-1.265.653-3.011t-.653-3.054-2.088-2.017q-1.434-.725-3.793-.725h-6.193V227zm13.693-13.068L84.356 227h-4.091l-7.046-13.068zm20.352 13.523q-3.153 0-5.44-1.393-2.273-1.406-3.509-3.92-1.222-2.529-1.222-5.881 0-3.351 1.222-5.909 1.236-2.571 3.438-4.005 2.215-1.449 5.17-1.449 1.704 0 3.367.568 1.661.568 3.025 1.846 1.364 1.265 2.173 3.353.81 2.088.81 5.142v1.42H89.764v-2.897h13.409q0-1.847-.739-3.296a5.57 5.57 0 0 0-2.074-2.287q-1.334-.838-3.153-.838-2.002 0-3.466.994a6.55 6.55 0 0 0-2.23 2.557 7.5 7.5 0 0 0-.781 3.381v1.932q0 2.47.852 4.19.867 1.705 2.4 2.599 1.535.882 3.566.881 1.32 0 2.386-.369a5.1 5.1 0 0 0 1.861-1.136q.781-.767 1.207-1.904l3.239.909a7.2 7.2 0 0 1-1.719 2.898q-1.207 1.236-2.983 1.932-1.775.681-3.991.682m17.486-13.58V227h-3.353v-21.818h3.239v3.409h.284a6.24 6.24 0 0 1 2.33-2.671q1.562-1.022 4.034-1.022 2.216 0 3.878.909 1.662.894 2.585 2.727.923 1.818.923 4.602V227h-3.352v-13.636q0-2.571-1.335-4.006-1.335-1.449-3.665-1.449-1.606 0-2.869.696-1.25.696-1.975 2.031-.724 1.336-.724 3.239m28.285 13.58q-2.728 0-4.816-1.378-2.088-1.392-3.267-3.921-1.179-2.543-1.179-6.008 0-3.438 1.179-5.966t3.281-3.906q2.103-1.378 4.858-1.378 2.131 0 3.367.71 1.25.696 1.903 1.591.668.88 1.037 1.449h.284v-10.739h3.353V227h-3.239v-3.352h-.398q-.369.596-1.051 1.505-.682.895-1.946 1.606-1.264.696-3.366.696m.454-3.012q2.017 0 3.409-1.051 1.392-1.065 2.117-2.94.724-1.89.724-4.361 0-2.443-.71-4.276-.71-1.846-2.102-2.869-1.392-1.037-3.438-1.037-2.13 0-3.551 1.094-1.406 1.08-2.117 2.94-.696 1.847-.696 4.148 0 2.33.711 4.233.725 1.889 2.13 3.011 1.421 1.108 3.523 1.108m25.298 3.012q-3.153 0-5.44-1.393-2.273-1.406-3.508-3.92-1.222-2.529-1.222-5.881 0-3.351 1.222-5.909 1.235-2.571 3.437-4.005 2.216-1.449 5.17-1.449 1.705 0 3.367.568t3.026 1.846q1.363 1.265 2.173 3.353t.809 5.142v1.42h-16.818v-2.897h13.409q0-1.847-.738-3.296a5.57 5.57 0 0 0-2.074-2.287q-1.335-.838-3.154-.838-2.003 0-3.465.994a6.55 6.55 0 0 0-2.231 2.557 7.5 7.5 0 0 0-.781 3.381v1.932q0 2.47.852 4.19.867 1.705 2.401 2.599 1.534.882 3.565.881 1.322 0 2.387-.369a5.1 5.1 0 0 0 1.861-1.136q.78-.767 1.207-1.904l3.239.909a7.2 7.2 0 0 1-1.719 2.898q-1.207 1.236-2.983 1.932-1.776.681-3.992.682m14.134-.455v-21.818h3.239v3.295h.227q.596-1.619 2.159-2.628 1.563-1.008 3.523-1.008.37 0 .923.014.554.015.838.043v3.409a10 10 0 0 0-.781-.128 8 8 0 0 0-1.264-.099q-1.591 0-2.841.667a5.04 5.04 0 0 0-1.961 1.818q-.71 1.15-.71 2.628V227z"/></svg>
